X:1
T:Title
%%score ( 1 2 ) { 3 | 4 }
L:1/8
M:4/4
K:D
V:1 treble nm="Grand Piano, Staff"
V:2 treble 
V:3 bass nm="Choir Pad, Woodlands, 10.10.10.10"
V:4 bass 
V:1
 z2 A2 A2 A2 | [Dd]6 [DA]2 | [DB]2 FG [DA]2 [CE]2 | [DF]6 [EA]2 | D4 D4 | D2 B,C [DF]2 [FB]2 | %6
 [EG]4 [B,E]4 | [CF]2 F2 F2 F2 | B2- [^DB-]2 [EB]2 [FB]2 | [GB]2 [Gd]2 [Ac]2 [FB]2 | [EA]6 [A,E]2 | %11
 [DF]4 [DG]4 | [DA]2 [DB]2 [Gc]2 [Fd]2 | E6 D2 | [A,D]8 |] %15
V:2
 x8 | x8 | z2 D2 z4 | x8 | x8 | z2 E2 z4 | x8 | x8 | B,2 z2 z4 | x8 | x8 | x8 | x8 | x8 | x8 |] %15
V:3
 z2 A,2 A,2 A,2 | D6 D2 | B,2 D2 E2 A,2 | A,6 A,2 | A,2 G,2 F,2 B,2 | A,2 G,2 A,2 B,2 | %6
 B,2 D2 C2 B,2 | ^A,2 F,2 F,2 F,2 | B,2 B,,2 B,4 | B,2 G,2 A,2 B,2 | E2 C2 D2 E2 | A,4 D4 | %12
 D2[K:bass] B,2 G,2 A,2 | B,4 C4 | D8 |] %15
V:4
 z8 | z4 z2 F,2 | G,2 B,2 A,2 A,,2 | D,2 E,2 D,2 C,2 | B,,4 A,,2 G,2 | F,2 E,2 D,2 D,2 | E,4 G,4 | %7
 F,2 z2 z4 | z4 C,2 ^D,2 | E,2 E,2 E,2 D,2 | C,2 A,,2 B,,2 C,2 | D,4 B,4 | F,2 G,F, E,2 D,2 | %13
 G,4 A,4 | [D,F,]8 |] %15

